assets/icons/24px/stroke/pencil-tip-24px.svg

<svg width="24" height="24" viewBox="0 0 24 24" fill="none" xmlns="http://www.w3.org/2000/svg">
<path fill-rule="evenodd" clip-rule="evenodd" d="M4.80387 21.9806C4.26231 21.8723 3.9111 21.3454 4.01941 20.8039L5.38764 13.9629C5.53185 13.2416 5.65749 12.6132 5.823 12.113C6.00147 11.5737 6.25981 11.0717 6.73767 10.68C7.21553 10.2882 7.75841 10.1333 8.3223 10.0641C8.84523 9.99991 9.48604 9.99994 10.2216 9.99999L13.7784 9.99999C14.514 9.99994 15.1548 9.99991 15.6777 10.0641C16.2416 10.1333 16.7845 10.2882 17.2623 10.68C17.7402 11.0717 17.9985 11.5737 18.177 12.113C18.3425 12.6132 18.4682 13.2416 18.6124 13.9629L19.9806 20.8039C20.0889 21.3454 19.7377 21.8722 19.1961 21.9806C18.6545 22.0889 18.1277 21.7376 18.0194 21.1961L16.6625 14.4116C16.5037 13.6173 16.4006 13.1111 16.2783 12.7413C16.1646 12.3977 16.0695 12.2882 15.9944 12.2266C15.9193 12.1651 15.7932 12.0933 15.434 12.0492C15.0474 12.0017 14.5308 12 13.7208 12L10.2792 12C9.46921 12 8.95256 12.0017 8.566 12.0492C8.20677 12.0933 8.08074 12.1651 8.00565 12.2266C7.93055 12.2882 7.83545 12.3977 7.72175 12.7413C7.5994 13.1111 7.49635 13.6173 7.33749 14.4116L5.98057 21.1961C5.87226 21.7377 5.34543 22.0889 4.80387 21.9806Z" fill="white"/>
<path d="M12 3L9 11L15 11L12 3Z" fill="white"/>
<path fill-rule="evenodd" clip-rule="evenodd" d="M15.8219 11.5696C15.6351 11.8392 15.328 12 15 12L8.99999 12C8.67201 12 8.36488 11.8392 8.17807 11.5696C7.99125 11.3 7.9485 10.956 8.06366 10.6489L11.0637 2.64888C11.21 2.25857 11.5832 2 12 2C12.4168 2 12.79 2.25857 12.9363 2.64888L15.9363 10.6489C16.0515 10.956 16.0087 11.3 15.8219 11.5696ZM13.557 10L12 5.848L10.443 10L13.557 10Z" fill="white"/>
</svg>

<svg width="24" height="24" fill="none" xmlns="http://www.w3.org/2000/svg"><path fill-rule="evenodd" clip-rule="evenodd" d="M4.804 21.98a1 1 0 0 1-.785-1.176l1.369-6.841c.144-.721.27-1.35.435-1.85.178-.54.437-1.041.915-1.433.478-.392 1.02-.547 1.584-.616C8.845 10 9.486 10 10.222 10h3.556c.736 0 1.377 0 1.9.064.564.07 1.107.224 1.584.616.478.392.736.894.915 1.433.166.5.291 1.129.435 1.85l1.369 6.84a1 1 0 0 1-1.962.393l-1.356-6.784c-.16-.795-.262-1.3-.385-1.67-.113-.344-.208-.454-.284-.515-.075-.062-.2-.134-.56-.178-.387-.047-.903-.049-1.713-.049h-3.442c-.81 0-1.326.002-1.713.05-.36.043-.485.115-.56.177-.075.061-.17.17-.284.514-.123.37-.226.876-.385 1.67l-1.356 6.785a1 1 0 0 1-1.177.785z" fill="#fff"/><path d="M12 3l-3 8h6l-3-8z" fill="#fff"/><path fill-rule="evenodd" clip-rule="evenodd" d="M15.822 11.57A1 1 0 0 1 15 12H9a1 1 0 0 1-.936-1.351l3-8a1 1 0 0 1 1.872 0l3 8a1 1 0 0 1-.114.92zM13.557 10L12 5.848 10.443 10h3.114z" fill="#fff"/></svg>
